X: 28090
T: Mr. Barnard
R: reel
M: 4/4
K: Fmajor
G|F2 CF AFEF|DFCF A,FCE|F2 CF AFEF|GABA GG,G,|
F2 CF AFEF|DFCF A,FCE|F2 CF AFEF|GABA GDD||
d|c2 AB cfAB|cfAB caAB|c2 ef cfAc|BGAF GDDd|
cfef dfcA|cfef afef|dbca BgAc|BGAF GDD||

